; generated by Slic3r 0.9.9 on 2013-04-11 at 17:41:10

; layer_height = 0.3
; perimeters = 3
; top_solid_layers = 3
; bottom_solid_layers = 3
; fill_density = 0.4
; perimeter_speed = 30
; infill_speed = 60
; travel_speed = 130
; nozzle_diameter = 0.3
; filament_diameter = 3
; extrusion_multiplier = 1
; perimeters extrusion width = 0.32mm
; infill extrusion width = 0.32mm
; solid infill extrusion width = 0.32mm
; top infill extrusion width = 0.32mm
; first layer extrusion width = 0.60mm

G21 ; set units to millimeters
M107
M104 S210 ; set temperature
G28 ; home all axes
G1 Z5 F5000 ; lift nozzle
M109 S210 ; wait for temperature to be reached
G90 ; use absolute coordinates
G92 E0
M82 ; use absolute distances for extrusion
G1 F1800.000 E-1.00000
G92 E0
G1 Z0.300 F7800.000
G1 X73.190 Y81.307
G1 F1800.000 E1.00000
G1 X73.810 Y80.817 F540.000 E1.01796
G1 X74.260 Y80.537 E1.03001
G1 X74.730 Y80.297 E1.04201
G1 X75.220 Y80.087 E1.05413
G1 X75.720 Y79.927 E1.06606
G1 X75.980 Y79.857 E1.07218
G1 X76.500 Y79.757 E1.08422
G1 X98.210 Y77.287 E1.58092
G1 X98.950 Y77.237 E1.59778
G1 X101.040 Y77.237 E1.64530
G1 X101.780 Y77.287 E1.66216
G1 X123.500 Y79.757 E2.15909
G1 X124.020 Y79.857 E2.17112
G1 X124.780 Y80.087 E2.18917
G1 X125.270 Y80.297 E2.20129
G1 X125.740 Y80.537 E2.21329
G1 X126.190 Y80.817 E2.22534
G1 X126.610 Y81.137 E2.23734
G1 X127.010 Y81.487 E2.24942
G1 X127.200 Y81.667 E2.25537
G1 X127.550 Y82.067 E2.26745
G1 X127.870 Y82.487 E2.27946
G1 X128.150 Y82.937 E2.29151
G1 X128.400 Y83.397 E2.30341
G1 X128.700 Y84.137 E2.32156
G1 X128.840 Y84.647 E2.33358
G1 X128.950 Y85.167 E2.34566
G1 X128.990 Y85.427 E2.35164
G1 X129.040 Y86.217 E2.36964
G1 X129.040 Y101.217 E2.71062
G1 X128.990 Y102.027 E2.72907
G1 X128.900 Y102.557 E2.74129
G1 X128.840 Y102.817 E2.74736
G1 X128.680 Y103.337 E2.75973
G1 X128.490 Y103.847 E2.77210
G1 X128.250 Y104.327 E2.78430
G1 X127.820 Y105.017 E2.80278
G1 X127.310 Y105.647 E2.82121
G1 X111.930 Y121.027 E3.31565
G1 X111.300 Y121.537 E3.33408
G1 X110.610 Y121.967 E3.35256
G1 X110.130 Y122.207 E3.36476
G1 X109.620 Y122.397 E3.37713
G1 X109.100 Y122.557 E3.38950
G1 X108.840 Y122.617 E3.39556
G1 X108.310 Y122.707 E3.40778
G1 X107.500 Y122.757 E3.42623
G1 X92.500 Y122.757 E3.76722
G1 X91.690 Y122.707 E3.78567
G1 X91.160 Y122.617 E3.79789
G1 X90.900 Y122.557 E3.80395
G1 X90.380 Y122.397 E3.81632
G1 X89.870 Y122.207 E3.82869
G1 X89.390 Y121.967 E3.84089
G1 X88.700 Y121.537 E3.85937
G1 X88.070 Y121.027 E3.87780
G1 X72.690 Y105.647 E4.37224
G1 X72.180 Y105.017 E4.39067
G1 X71.750 Y104.327 E4.40915
G1 X71.510 Y103.847 E4.42135
G1 X71.320 Y103.337 E4.43372
G1 X71.160 Y102.817 E4.44609
G1 X71.100 Y102.557 E4.45215
G1 X71.010 Y102.027 E4.46437
G1 X70.960 Y101.217 E4.48282
G1 X70.970 Y85.957 E4.82972
G1 X71.010 Y85.427 E4.84180
G1 X71.160 Y84.647 E4.85986
G1 X71.300 Y84.137 E4.87188
G1 X71.600 Y83.397 E4.89003
G1 X71.850 Y82.937 E4.90193
G1 X72.130 Y82.487 E4.91398
G1 X72.620 Y81.867 E4.93195
G1 X72.800 Y81.667 E4.93806
G1 X73.130 Y81.361 E4.94830
G1 F1800.000 E3.94830
G92 E0
G1 X113.859 Y92.210 F7800.000
G1 F1800.000 E1.00000
G1 X116.224 Y90.324 F540.000 E1.06877
G1 X119.174 Y90.997 E1.13754
G1 X120.486 Y93.723 E1.20631
G1 X119.174 Y96.448 E1.27508
G1 X116.224 Y97.121 E1.34385
G1 X113.859 Y95.235 E1.41262
G1 X113.859 Y92.290 E1.47957
G1 X114.395 Y92.468 F7800.000
G1 X116.357 Y90.903 F540.000 E1.53661
G1 X118.803 Y91.462 E1.59366
G1 X119.892 Y93.723 E1.65070
G1 X118.803 Y95.983 E1.70774
G1 X116.357 Y96.542 E1.76479
G1 X114.395 Y94.977 E1.82183
G1 X114.395 Y92.548 E1.87705
G1 X114.930 Y92.726 F7800.000
G1 X116.489 Y91.483 F540.000 E1.92236
G1 X118.432 Y91.927 E1.96768
G1 X119.297 Y93.723 E2.01300
G1 X118.432 Y95.519 E2.05831
G1 X116.489 Y95.962 E2.10363
G1 X114.930 Y94.719 E2.14895
G1 X114.930 Y92.806 E2.19244
G1 X114.698 Y92.243 F7800.000
G1 X114.698 Y92.614
G1 X101.603 Y87.394
G1 X97.422 Y87.740
G1 X85.555 Y93.723
G1 X86.486 Y93.723
G1 X85.174 Y96.448 F540.000 E2.26121
G1 X82.224 Y97.121 E2.32998
G1 X79.859 Y95.235 E2.39875
G1 X79.859 Y92.210 E2.46752
G1 X82.224 Y90.324 E2.53629
G1 X85.174 Y90.997 E2.60506
G1 X86.451 Y93.650 E2.67200
G1 X85.892 Y93.723 F7800.000
G1 X84.803 Y95.983 F540.000 E2.72905
G1 X82.357 Y96.542 E2.78609
G1 X80.395 Y94.977 E2.84313
G1 X80.395 Y92.468 E2.90018
G1 X82.357 Y90.903 E2.95722
G1 X84.803 Y91.462 E3.01427
G1 X85.857 Y93.650 E3.06948
G1 X85.297 Y93.723 F7800.000
G1 X84.432 Y95.519 F540.000 E3.11480
G1 X82.489 Y95.962 E3.16011
G1 X80.930 Y94.719 E3.20543
G1 X80.930 Y92.726 E3.25075
G1 X82.489 Y91.483 E3.29606
G1 X84.432 Y91.927 E3.34138
G1 X85.262 Y93.650 E3.38487
G1 X85.716 Y94.057 F7800.000
G1 X92.743 Y94.934
G1 X92.743 Y92.512 F540.000 E3.43993
G1 X93.529 Y90.221 E3.49499
G1 X95.017 Y88.309 E3.55005
G1 X97.044 Y86.985 E3.60510
G1 X99.392 Y86.390 E3.66016
G1 X101.806 Y86.590 E3.71522
G1 X104.024 Y87.563 E3.77028
G1 X105.806 Y89.203 E3.82534
G1 X106.959 Y91.334 E3.88040
G1 X107.358 Y93.723 E3.93546
G1 X106.959 Y96.112 E3.99051
G1 X105.806 Y98.242 E4.04557
G1 X104.024 Y99.882 E4.10063
G1 X101.806 Y100.855 E4.15569
G1 X99.392 Y101.055 E4.21075
G1 X97.044 Y100.460 E4.26581
G1 X95.017 Y99.136 E4.32087
G1 X93.529 Y97.224 E4.37592
G1 X92.769 Y95.010 E4.42916
G1 X93.278 Y94.844 F7800.000
G1 X93.278 Y92.601 F540.000 E4.48015
G1 X94.007 Y90.479 E4.53115
G1 X95.385 Y88.709 E4.58214
G1 X97.263 Y87.482 E4.63314
G1 X99.437 Y86.931 E4.68413
G1 X101.673 Y87.117 E4.73513
G1 X103.727 Y88.018 E4.78612
G1 X105.378 Y89.537 E4.83712
G1 X106.445 Y91.510 E4.88811
G1 X106.815 Y93.723 E4.93911
G1 X106.445 Y95.935 E4.99010
G1 X105.378 Y97.908 E5.04110
G1 X103.727 Y99.428 E5.09209
G1 X101.673 Y100.329 E5.14309
G1 X99.437 Y100.514 E5.19408
G1 X97.263 Y99.963 E5.24508
G1 X95.385 Y98.736 E5.29607
G1 X94.007 Y96.966 E5.34707
G1 X93.304 Y94.920 E5.39623
G1 X93.814 Y94.755 F7800.000
G1 X93.814 Y92.690 F540.000 E5.44317
G1 X94.484 Y90.738 E5.49010
G1 X95.752 Y89.109 E5.53703
G1 X97.481 Y87.979 E5.58396
G1 X99.482 Y87.473 E5.63089
G1 X101.540 Y87.643 E5.67782
G1 X103.430 Y88.472 E5.72475
G1 X104.949 Y89.871 E5.77168
G1 X105.932 Y91.686 E5.81862
G1 X106.272 Y93.723 E5.86555
G1 X105.932 Y95.759 E5.91248
G1 X104.949 Y97.575 E5.95941
G1 X103.430 Y98.973 E6.00634
G1 X101.540 Y99.802 E6.05327
G1 X99.482 Y99.973 E6.10020
G1 X97.481 Y99.466 E6.14714
G1 X95.752 Y98.337 E6.19407
G1 X94.484 Y96.708 E6.24100
G1 X93.840 Y94.831 E6.28610
G1 X93.324 Y94.540 F7800.000
G1 X99.224 Y107.324
G1 X102.174 Y107.997 F540.000 E6.35487
G1 X103.486 Y110.723 E6.42365
G1 X102.174 Y113.448 E6.49242
G1 X99.224 Y114.121 E6.56119
G1 X96.859 Y112.235 E6.62996
G1 X96.859 Y109.210 E6.69873
G1 X99.161 Y107.374 E6.76568
G1 X99.357 Y107.903 F7800.000
G1 X101.803 Y108.462 F540.000 E6.82272
G1 X102.892 Y110.723 E6.87976
G1 X101.803 Y112.983 E6.93681
G1 X99.357 Y113.542 E6.99385
G1 X97.395 Y111.977 E7.05090
G1 X97.395 Y109.468 E7.10794
G1 X99.294 Y107.953 E7.16316
G1 X99.489 Y108.483 F7800.000
G1 X101.432 Y108.927 F540.000 E7.20848
G1 X102.297 Y110.723 E7.25379
G1 X101.432 Y112.519 E7.29911
G1 X99.489 Y112.962 E7.34443
G1 X97.930 Y111.719 E7.38974
G1 X97.930 Y109.726 E7.43506
G1 X99.426 Y108.533 E7.47855
G1 X99.721 Y108.000 F7800.000
G1 X93.839 Y114.884
G1 X93.839 Y99.884 F540.000 E7.81954
G1 X78.839 Y99.884 E8.16052
G1 X78.839 Y87.562 E8.44063
G1 X93.838 Y87.562 E8.78160
G1 X95.673 Y86.228 E8.83316
G1 X97.326 Y85.493 E8.87428
G1 X99.095 Y85.116 E8.91541
G1 X100.905 Y85.116 E8.95653
G1 X102.674 Y85.493 E8.99766
G1 X104.327 Y86.228 E9.03878
G1 X106.162 Y87.562 E9.09035
G1 X121.161 Y87.562 E9.43131
G1 X121.161 Y99.884 E9.71142
G1 X106.161 Y99.884 E10.05240
G1 X106.161 Y114.884 E10.39339
G1 X93.919 Y114.884 E10.67167
G1 X93.303 Y115.419 F7800.000
G1 X93.303 Y100.419 F540.000 E11.01266
G1 X78.303 Y100.419 E11.35364
G1 X78.303 Y87.026 E11.65810
G1 X93.664 Y87.026 E12.00729
G1 X95.404 Y85.762 E12.05617
G1 X97.159 Y84.980 E12.09986
G1 X99.039 Y84.581 E12.14354
G1 X100.961 Y84.581 E12.18723
G1 X102.841 Y84.980 E12.23091
G1 X104.596 Y85.762 E12.27459
G1 X106.336 Y87.026 E12.32348
G1 X121.697 Y87.026 E12.67267
G1 X121.697 Y100.419 E12.97712
G1 X106.697 Y100.419 E13.31811
G1 X106.697 Y115.419 E13.65910
G1 X93.384 Y115.419 E13.96173
G1 X92.768 Y115.955 F7800.000
G1 X92.768 Y100.955 F378.000 E14.30271
G1 X77.768 Y100.955 E14.64370
G1 X77.768 Y86.490 E14.97251
G1 X93.490 Y86.490 E15.32991
G1 X95.135 Y85.296 E15.37613
G1 X96.993 Y84.468 E15.42237
G1 X98.983 Y84.045 E15.46861
G1 X101.017 Y84.045 E15.51486
G1 X103.007 Y84.468 E15.56110
G1 X104.865 Y85.296 E15.60734
G1 X106.510 Y86.490 E15.65356
G1 X122.232 Y86.490 E16.01096
G1 X122.232 Y100.955 E16.33977
G1 X107.232 Y100.955 E16.68076
G1 X107.232 Y115.955 E17.02174
G1 X92.848 Y115.955 E17.34873
G1 X93.036 Y115.491 F7800.000
G1 X94.227 Y114.495
G1 X94.227 Y113.737 F1080.000 E17.36599
G1 X94.986 Y114.495 E17.39041
G1 X95.744 Y114.495 E17.40768
G1 X94.227 Y112.978 E17.45651
G1 X94.227 Y112.220 E17.47377
G1 X96.503 Y114.495 E17.54702
G1 X97.261 Y114.495 E17.56428
G1 X94.227 Y111.461 E17.66194
G1 X94.227 Y110.703 E17.67920
G1 X98.020 Y114.495 E17.80128
G1 X98.778 Y114.495 E17.81854
G1 X97.627 Y113.344 E17.85560
G1 X96.471 Y112.188 F7800.000
G1 X94.227 Y109.945 F1080.000 E17.92782
G1 X94.227 Y109.186 E17.94508
G1 X96.471 Y111.430 E18.01730
G1 X96.471 Y110.671 E18.03456
G1 X94.227 Y108.428 E18.10678
G1 X94.227 Y107.669 E18.12404
G1 X96.471 Y109.913 E18.19626
G1 X96.471 Y109.154 E18.21352
G1 X94.227 Y106.911 E18.28574
G1 X94.227 Y106.152 E18.30300
G1 X96.820 Y108.745 E18.38645
G1 X97.242 Y108.408 E18.39873
G1 X94.227 Y105.394 E18.49576
G1 X94.227 Y104.635 E18.51303
G1 X97.664 Y108.072 E18.62364
G1 X98.086 Y107.735 E18.63592
G1 X94.227 Y103.877 E18.76012
G1 X94.227 Y103.119 E18.77738
G1 X98.507 Y107.399 E18.91516
G1 X98.929 Y107.062 E18.92744
G1 X94.227 Y102.360 E19.07880
G1 X94.227 Y101.602 E19.09606
G1 X99.648 Y107.022 E19.27054
G1 X100.630 Y107.247 E19.29349
G1 X94.227 Y100.843 E19.49960
G1 X94.227 Y100.085 E19.51686
G1 X101.613 Y107.471 E19.75461
G1 X103.037 Y108.894 F7800.000
G1 X105.773 Y111.630 F1080.000 E19.84269
G1 X105.773 Y110.872 E19.85995
G1 X82.851 Y87.950 E20.59779
G1 X82.092 Y87.950 E20.61505
G1 X84.613 Y90.471 E20.69620
G1 X83.631 Y90.247 E20.71915
G1 X81.334 Y87.950 E20.79307
G1 X80.575 Y87.950 E20.81034
G1 X82.648 Y90.022 E20.87705
G1 X81.929 Y90.062 E20.89342
G1 X79.817 Y87.950 E20.96142
G1 X79.227 Y88.119 E20.97538
G1 X81.508 Y90.399 E21.04878
G1 X81.086 Y90.735 E21.06106
G1 X79.227 Y88.877 E21.12088
G1 X79.227 Y89.635 E21.13814
G1 X80.664 Y91.072 E21.18438
G1 X80.242 Y91.408 E21.19666
G1 X79.227 Y90.394 E21.22932
G1 X79.227 Y91.152 E21.24658
G1 X79.820 Y91.745 E21.26565
G1 X79.398 Y92.081 E21.27794
G1 X79.227 Y91.911 E21.28342
G1 X79.227 Y95.703 F7800.000
G1 X83.020 Y99.495 F1080.000 E21.40550
G1 X82.261 Y99.495 E21.42276
G1 X79.227 Y96.461 E21.52042
G1 X79.227 Y97.220 E21.53768
G1 X81.503 Y99.495 E21.61093
G1 X80.744 Y99.495 E21.62819
G1 X79.227 Y97.978 E21.67703
G1 X79.227 Y98.737 E21.69429
G1 X79.986 Y99.495 E21.71871
G1 X79.227 Y99.495 E21.73598
G1 X80.627 Y96.344 F7800.000
G1 X83.778 Y99.495 F1080.000 E21.83742
G1 X84.537 Y99.495 E21.85469
G1 X82.498 Y97.457 E21.92030
G1 X83.116 Y97.316 E21.93471
G1 X85.295 Y99.495 E22.00486
G1 X86.053 Y99.495 E22.02212
G1 X83.733 Y97.175 E22.09680
G1 X84.351 Y97.034 E22.11122
G1 X86.812 Y99.495 E22.19044
G1 X87.570 Y99.495 E22.20770
G1 X84.968 Y96.893 E22.29146
G1 X85.500 Y96.666 E22.30461
G1 X88.329 Y99.495 E22.39568
G1 X89.087 Y99.495 E22.41294
G1 X85.746 Y96.154 E22.52049
G1 X85.993 Y95.642 E22.53342
G1 X89.846 Y99.495 E22.65745
G1 X90.604 Y99.495 E22.67471
G1 X86.239 Y95.130 E22.81521
G1 X86.486 Y94.619 E22.82814
G1 X91.362 Y99.495 E22.98512
G1 X92.121 Y99.495 E23.00239
G1 X86.732 Y94.107 E23.17584
G1 X86.741 Y93.357 E23.19291
G1 X92.879 Y99.495 E23.39049
G1 X93.638 Y99.495 E23.40775
G1 X86.037 Y91.894 E23.65243
G1 X85.884 Y87.950 F7800.000
G1 X92.355 Y94.420 F1080.000 E23.86070
G1 X92.355 Y93.662 E23.87796
G1 X86.643 Y87.950 E24.06181
G1 X87.401 Y87.950 E24.07907
G1 X92.355 Y92.903 E24.23852
G1 X92.432 Y92.222 E24.25412
G1 X88.160 Y87.950 E24.39163
G1 X88.918 Y87.950 E24.40890
G1 X92.626 Y91.657 E24.52823
G1 X92.819 Y91.093 E24.54182
G1 X89.677 Y87.950 E24.64298
G1 X90.435 Y87.950 E24.66025
G1 X93.013 Y90.528 E24.74324
G1 X93.224 Y89.981 E24.75659
G1 X91.194 Y87.950 E24.82196
G1 X91.952 Y87.950 E24.83922
G1 X93.556 Y89.554 E24.89086
G1 X93.888 Y89.128 E24.90316
G1 X92.710 Y87.950 E24.94107
G1 X93.469 Y87.950 E24.95834
G1 X94.220 Y88.701 E24.98252
G1 X94.552 Y88.275 E24.99482
G1 X94.227 Y87.950 E25.00527
G1 X92.449 Y95.273 F7800.000
G1 X85.126 Y87.950 F1080.000 E25.24098
G1 X84.368 Y87.950 E25.25825
G1 X92.845 Y96.427 E25.53113
G1 X93.577 Y97.917 E25.56891
G1 X83.609 Y87.950 E25.88975
G1 X95.715 Y100.055 F7800.000
G1 X105.773 Y110.113 F1080.000 E26.21351
G1 X105.773 Y109.355 E26.23077
G1 X97.358 Y100.940 E26.50164
G1 X98.374 Y101.198 E26.52548
G1 X105.773 Y108.597 E26.76365
G1 X105.773 Y107.838 E26.78091
G1 X99.380 Y101.446 E26.98668
G1 X100.081 Y101.388 E27.00268
G1 X105.773 Y107.080 E27.18591
G1 X105.773 Y106.321 E27.20317
G1 X100.781 Y101.330 E27.36385
G1 X101.481 Y101.271 E27.37985
G1 X105.773 Y105.563 E27.51798
G1 X105.773 Y104.804 E27.53524
G1 X102.113 Y101.144 E27.65305
G1 X102.640 Y100.913 E27.66616
G1 X105.773 Y104.046 E27.76700
G1 X105.773 Y103.288 E27.78426
G1 X103.167 Y100.682 E27.86813
G1 X103.694 Y100.451 E27.88124
G1 X105.773 Y102.529 E27.94814
G1 X105.773 Y101.771 E27.96540
G1 X104.222 Y100.219 E28.01533
G1 X104.621 Y99.860 E28.02756
G1 X105.773 Y101.012 E28.06463
G1 X105.773 Y100.254 E28.08189
G1 X105.016 Y99.497 E28.10626
G1 X105.411 Y99.133 E28.11847
G1 X105.773 Y99.495 E28.13013
G1 X105.806 Y98.770 E28.14666
G1 X106.531 Y99.495 E28.17001
G1 X107.290 Y99.495 E28.18728
G1 X106.173 Y98.379 E28.22321
G1 X106.440 Y97.887 E28.23595
G1 X108.048 Y99.495 E28.28772
G1 X108.807 Y99.495 E28.30499
G1 X106.706 Y97.395 E28.37260
G1 X106.972 Y96.903 E28.38534
G1 X109.565 Y99.495 E28.46880
G1 X110.323 Y99.495 E28.48606
G1 X107.239 Y96.411 E28.58536
G1 X107.402 Y95.815 E28.59940
G1 X111.082 Y99.495 E28.71786
G1 X111.840 Y99.495 E28.73512
G1 X107.510 Y95.165 E28.87450
G1 X107.619 Y94.515 E28.88949
G1 X112.599 Y99.495 E29.04979
G1 X113.357 Y99.495 E29.06705
G1 X107.727 Y93.865 E29.24827
G1 X107.633 Y93.012 E29.26781
G1 X114.116 Y99.495 E29.47649
G1 X114.874 Y99.495 E29.49376
G1 X107.481 Y92.102 E29.73174
G1 X107.317 Y91.180 E29.75305
G1 X115.632 Y99.495 E30.02071
G1 X116.391 Y99.495 E30.03797
G1 X106.423 Y89.527 E30.35884
G1 X106.362 Y87.950 F7800.000
G1 X113.471 Y95.058 F1080.000 E30.58766
G1 X113.471 Y94.300 E30.60492
G1 X107.121 Y87.950 E30.80932
G1 X107.879 Y87.950 E30.82659
G1 X113.471 Y93.542 E31.00658
G1 X113.471 Y92.783 E31.02384
G1 X108.638 Y87.950 E31.17942
G1 X109.396 Y87.950 E31.19668
G1 X113.471 Y92.025 E31.32785
G1 X113.892 Y91.687 E31.34013
G1 X110.154 Y87.950 E31.46043
G1 X110.913 Y87.950 E31.47769
G1 X114.314 Y91.351 E31.58717
G1 X114.736 Y91.014 E31.59945
G1 X111.671 Y87.950 E31.69809
G1 X112.430 Y87.950 E31.71536
G1 X115.158 Y90.678 E31.80317
G1 X115.580 Y90.341 E31.81545
G1 X113.188 Y87.950 E31.89243
G1 X113.947 Y87.950 E31.90969
G1 X116.002 Y90.005 E31.97584
G1 X116.816 Y90.061 E31.99441
G1 X114.705 Y87.950 E32.06236
G1 X115.464 Y87.950 E32.07962
G1 X117.799 Y90.285 E32.15478
G1 X118.781 Y90.509 E32.17773
G1 X116.222 Y87.950 E32.26011
G1 X116.980 Y87.950 E32.27737
G1 X120.773 Y91.742 E32.39945
G1 X120.773 Y90.984 E32.41671
G1 X117.739 Y87.950 E32.51437
G1 X118.497 Y87.950 E32.53163
G1 X120.773 Y90.225 E32.60488
G1 X120.773 Y89.467 E32.62214
G1 X119.256 Y87.950 E32.67097
G1 X120.014 Y87.950 E32.68823
G1 X120.773 Y88.708 E32.71265
G1 X120.773 Y87.950 E32.72992
G1 X119.916 Y91.644 F7800.000
G1 X120.773 Y92.501 F1080.000 E32.75749
G1 X120.618 Y94.621 F7800.000
G1 X120.773 Y94.776 F1080.000 E32.76249
G1 X120.281 Y95.043 E32.77522
G1 X120.773 Y95.534 E32.79104
G1 X120.035 Y95.555 E32.80784
G1 X120.773 Y96.293 E32.83160
G1 X120.773 Y97.051 E32.84886
G1 X119.788 Y96.067 E32.88055
G1 X119.542 Y96.579 E32.89348
